X: 30334
M: 3/8
L: 1/8
K: G
|:\
[B3G3] | B3 | BAB | d2c | A3 | A3 | AGA | B2G |\
e3 | d3 | c3 | B3 | A>^GA | dcA | G3 | G/A/B/c/d |\
e3 | d3 | c3 | B3 | A>GA | dcA | G3 | G3 :|


